static/delete.svg

<svg width="20" height="20" viewBox="0 0 20 20" fill="none" xmlns="http://www.w3.org/2000/svg">
<path d="M4.66699 16.2222C4.66699 17.2045 5.46253 18 6.44478 18H13.5559C14.5381 18 15.3337 17.2045 15.3337 16.2222V5.55554H4.66699V16.2222Z" fill="black"/>
<path d="M4.66699 16.2222C4.66699 17.2045 5.46253 18 6.44478 18H13.5559C14.5381 18 15.3337 17.2045 15.3337 16.2222V5.55554H4.66699V16.2222Z" fill="#FF6464"/>
<path d="M13.1112 2.88888L12.2222 2H7.77783L6.88892 2.88888H3.77783V4.66667H16.2222V2.88888H13.1112Z" fill="black"/>
<path d="M13.1112 2.88888L12.2222 2H7.77783L6.88892 2.88888H3.77783V4.66667H16.2222V2.88888H13.1112Z" fill="#FF6464"/>
</svg>

<svg width="20" height="20" fill="none" xmlns="http://www.w3.org/2000/svg"><path d="M4.667 16.222c0 .982.796 1.778 1.778 1.778h7.11c.983 0 1.779-.796 1.779-1.778V5.556H4.667v10.666z" fill="#000"/><path d="M4.667 16.222c0 .982.796 1.778 1.778 1.778h7.11c.983 0 1.779-.796 1.779-1.778V5.556H4.667v10.666z" fill="#FF6464"/><path d="M13.111 2.889L12.222 2H7.778l-.89.889h-3.11v1.778h12.444V2.889h-3.11z" fill="#000"/><path d="M13.111 2.889L12.222 2H7.778l-.89.889h-3.11v1.778h12.444V2.889h-3.11z" fill="#FF6464"/></svg>
